!!!!SEGMENT: pl-cz--iii-896--001_anonim--partita-es-allegro-molto.krn
!!!cenid: 18xx:2490
!!!COM: Anonim
!!!COM-rismid: pe30004985
!!!CDT:
!!!CNT:
!!!OPR: Partita Es
!!!OTL: Allegro molto
!!!OMV: 001
!!!PDT:
!!!AGN: Secular; Partita
!!!SMS-siglum: PL-CZ
!!!SMS-shelfmark: III-896
!!!SMS-shelfwork: 001-001 M
!!!SMS-variant:
!!!SMS-altvar:
!!!NIFC-rismid: 1001012556
!!!URL-scan: http://repozytorium.nifc.pl/skany/pl-cz-nut--iii-896
!!!ONB-nifc: UWAGA: częsci Partity: 1. Allegro molto, 2. Andante, 3. Menuetto, 4. Finale
!!!key:
**kern	**dynam	**kern	**dynam	**kern	**dynam	**kern	**dynam	**kern	**dynam	**kern	**dynam
*part6	*part6	*part5	*part5	*part4	*part4	*part3	*part3	*part2	*part2	*part1	*part1
*staff6	*	*staff5	*	*staff4	*	*staff3	*	*staff2	*	*staff1	*
*Icor	*	*Icor	*	*Ifagot	*	*Ifagot	*	*Iclars	*	*Iclars	*
*I"Corno Secondo in Dis	*	*I"Corno Primo in Dis	*	*I"Fagotto Secondo	*	*I"Fagotto Primo	*	*I"Clarinetto Secondo	*	*I"Clarinetto Primo	*
*I'cor 2 in D#	*	*I'cor 1 in D#	*	*I'fag 2	*	*I'fag 1	*	*I'cl 2 in B♭	*	*I'cl 1 in B♭	*
*clefG2	*	*clefG2	*	*clefF4	*	*clefF4	*	*clefG2	*	*clefG2	*
*ITrd5c9	*	*ITrd5c9	*	*	*	*	*	*ITrd1c2	*	*ITrd1c2	*
*>[A,A,B,B]	*	*>[A,A,B,B]	*	*>[A,A,B,B]	*	*>[A,A,B,B]	*	*>[A,A,B,B]	*	*>[A,A,B,B]	*
*k[b-e-a-]	*	*k[b-e-a-]	*	*k[b-e-a-]	*	*k[b-e-a-]	*	*k[b-e-a-]	*	*k[b-e-a-]	*
*c:	*	*c:	*	*c:	*	*c:	*	*c:	*	*c:	*
*M2/2	*	*M2/2	*	*M2/2	*	*M2/2	*	*M2/2	*	*M2/2	*
*met(c|)	*	*met(c|)	*	*met(c|)	*	*met(c|)	*	*met(c|)	*	*met(c|)	*
!	!	!	!	!	!	!	!	!	!	!LO:TX:t=P:f=for:global:problem	!
!	!	!	!	!LO:TX:t=P:problem=kolejność znaków&colon; AA- E- BB-	!	!LO:TX:t=P:problem=kolejność znaków&colon; AA- E- BB-	!	!	!	!LO:TX:t=P:problem=all\middle or left&colon; global	!
!LO:TX:a:t=Allegro Molto	!	!LO:TX:a:t=Allegro Molto	!	!LO:TX:a:t=Allegro Molto	!	!LO:TX:a:t=Allegro Molto	!	!LO:TX:a:t=Allegro Molto	!	!LO:TX:a:t=Allegro Molto	!
*>A	*	*>A	*	*>A	*	*>A	*	*>A	*	*>A	*
!LO:TX:t=P:problem=partia zapisana in Es	!	!LO:TX:t=P:problem=partia zapisana in Es	!	!	!	!	!	!	!	!	!
4r	.	4r	.	4r	.	4r	.	8.ee-\L	f	8.gg\L	f
.	.	.	.	.	.	.	.	16ee-\Jk	.	16gg\Jk	.
=1	=1	=1	=1	=1	=1	=1	=1	=1	=1	=1	=1
!	!	!	!LO:DY:t=f	!	!	!	!	!	!	!	!
4e-\	.	4g\	f	4C/	f	4C/	f	4ee-\	.	4gg\	.
4r	.	4r	.	4r	.	4r	.	8.cc\L	.	8.ee-\L	.
.	.	.	.	.	.	.	.	16cc\Jk	.	16ee-\Jk	.
4e-\	.	4g\	.	4C/	.	4C/	.	4cc\	.	4ee-\	.
4r	.	4r	.	4r	.	4r	.	8.g/L	.	8.cc\L	.
.	.	.	.	.	.	.	.	16g/Jk	.	16cc\Jk	.
=2	=2	=2	=2	=2	=2	=2	=2	=2	=2	=2	=2
4e-\	.	4g\	.	2C/	.	2C/	.	4g/	.	4cc\	.
4r	.	4r	.	.	.	.	.	8.e-/L	.	8.g/L	.
.	.	.	.	.	.	.	.	16e-/Jk	.	16g/Jk	.
2r	.	2r	.	2r	.	4r	.	4e-/	.	4g/	.
.	.	.	.	.	.	4c\	p	8.c/L	.	8e-/L	.
.	.	.	.	.	.	.	.	.	.	8c/J	.
.	.	.	.	.	.	.	.	16c/Jk	.	.	.
=3	=3	=3	=3	=3	=3	=3	=3	=3	=3	=3	=3
!LO:TX:a:t=2	!	!LO:TX:a:t=2	!	!LO:TX:a:t=2.	!	!	!	!	!LO:DY:rj	!	!LO:DY:rj
0r	.	0r	.	0r	.	4Bn\	.	4f/	p	4a-/	p
.	.	.	.	.	.	4c\	.	4e-/	.	4g/	.
.	.	.	.	.	.	4B\	.	4f/	.	4a-/	.
.	.	.	.	.	.	4c\	.	4e-/	.	4g/	.
!	!	!	!	!	!	!LO:LB:g=original	!	!LO:LB:g=original	!	!	!
=4	=4	=4	=4	=4	=4	=4	=4	=4	=4	=4	=4
.	.	.	.	.	.	4Bn\	.	4f/	.	4a-/	.
.	.	.	.	.	.	4c\	.	4e-/	.	4g/	.
.	.	.	.	.	.	2r	.	4r	.	4r	.
.	.	.	.	.	.	.	.	8.ee-\L	f	8.gg\L	f
.	.	.	.	.	.	.	.	16ee-\Jk	.	16gg\Jk	.
!	!	!	!	!	!	!	!	!	!	!LO:LB:g=original	!
=5	=5	=5	=5	=5	=5	=5	=5	=5	=5	=5	=5
4e-\	.	4g\	.	4C/	.	4C/	f	4ee-\	.	4gg\	.
4r	.	4r	.	4r	.	4r	.	8.cc\L	.	8.ee-\L	.
.	.	.	.	.	.	.	.	16cc\Jk	.	16ee-\Jk	.
4e-\	.	4g\	.	4C/	.	4C/	.	4cc\	.	4ee-\	.
4r	.	4r	.	4r	.	4r	.	8.g/L	.	8.cc\L	.
.	.	.	.	.	.	.	.	16g/Jk	.	16cc\Jk	.
!	!	!	!	!LO:LB:g=original	!	!	!	!	!	!	!
=6	=6	=6	=6	=6	=6	=6	=6	=6	=6	=6	=6
4e-\	.	4g\	.	2C/	.	2C/	.	4g/	.	4cc\	.
4r	.	4r	.	.	.	.	.	8.e-/L	.	8.g/L	.
.	.	.	.	.	.	.	.	16e-/Jk	.	16g/Jk	.
2r	.	2r	.	2r	.	4r	.	4e-/	.	4g/	.
.	.	.	.	.	.	4c\	p	8.c/L	.	8e-/L	.
.	.	.	.	.	.	.	.	.	.	8c/J	.
.	.	.	.	.	.	.	.	16c/Jk	.	.	.
=7	=7	=7	=7	=7	=7	=7	=7	=7	=7	=7	=7
!	!LO:DY:rj	!	!LO:DY:rj	!LO:TX:a:t=1	!	!	!	!	!LO:DY:rj	!	!
1G/	p	1g/	p	1r	.	4Bn\	.	4d/	p	4f/	p
.	.	.	.	.	.	4c\	.	4c/	.	4e-/	.
.	.	.	.	.	.	4B\	.	4d/	.	4f/	.
.	.	.	.	.	.	4c\	.	4c/	.	4e-/	.
!	!	!	!	!	!	!	!	!LO:LB:g=original	!	!	!
=8	=8	=8	=8	=8	=8	=8	=8	=8	=8	=8	=8
*	*	*2\right	*	*	*	*	*	*	*	*	*
!	!	!LO:TX:t=P:problem=2\right&colon; global	!	!	!	!	!	!	!	!	!
2G/	.	2g\	.	2r	.	4Bn\	.	4d/	.	4f/	.
.	.	.	.	.	.	4c\	.	4c/	.	4e-/	.
2r	.	2r	.	4r	.	4r	.	4r	.	(8g\L	.
.	.	.	.	.	.	.	.	.	.	8cc\	.
.	.	.	.	4C/	.	4C/	f	4e-/	.	8ee-\	.
.	.	.	.	.	.	.	.	.	.	8cc\J)	.
!LO:LB:g=original	!	!	!	!	!	!LO:LB:g=original	!	!	!	!	!
=9	=9	=9	=9	=9	=9	=9	=9	=9	=9	=9	=9
!LO:TX:a:t=3	!	!LO:TX:a:t=3	!	!	!	!	!	!	!	!LO:TX:t=P:problem=2\right&colon; global	!
.	.	.	.	.	.	.	.	.	.	16qqcc/	.
*	*	*	*	*	*	*	*	*	*	*2\right	*
0r	.	0r	.	4D\	.	4D\	.	2f/	.	2bX\	.
.	.	.	.	4d\	.	4d\	.	.	.	.	.
.	.	.	.	.	.	.	.	.	.	16qqgg/	.
.	.	.	.	4r	.	4r	.	4r	.	4ff\	.
.	.	.	.	4D\	.	4D\	.	4f/	.	8ee-\L	.
.	.	.	.	.	.	.	.	.	.	8dd\J	.
=10	=10	=10	=10	=10	=10	=10	=10	=10	=10	=10	=10
.	.	.	.	.	.	.	.	.	.	16qqdd/	.
.	.	.	.	4E-\	.	4E-\	.	2g/	.	2cc\	.
.	.	.	.	4e-\	.	4e-\	.	.	.	.	.
.	.	.	.	4r	.	4r	.	4r	.	8gg\L	.
.	.	.	.	.	.	.	.	.	.	8ee-\	.
.	.	.	.	4E-\	.	4E-\	.	4g/	.	8dd\	.
.	.	.	.	.	.	.	.	.	.	8cc\J	.
!	!	!	!	!	!	!	!	!	!	!LO:LB:g=original	!
=11	=11	=11	=11	=11	=11	=11	=11	=11	=11	=11	=11
1r	.	1r	.	4.A-\	.	4.A-\	.	4.a-/	.	4.aa-\	.
.	.	.	.	8G\	.	8G\	.	8g/	.	8gg\	.
.	.	.	.	8F\L	.	8F\L	.	8f/L	.	8ff\L	.
.	.	.	.	8E-\	.	8E-\	.	8e-/	.	8ee-\	.
.	.	.	.	8D\	.	8D\	.	8d/	.	8dd\	.
.	.	.	.	8C\J	.	8C\J	.	8c/J	.	8cc\J	.
!	!	!	!	!LO:LB:g=original	!	!	!	!	!	!	!
=12	=12	=12	=12	=12	=12	=12	=12	=12	=12	=12	=12
2r	.	2r	.	4G\	.	4G\	.	4g/	.	4gg\	.
.	.	.	.	4GG/	.	4GG/	.	4G/	.	4g/	.
4r	.	4r	.	4r	.	4r	.	4r	.	4r	.
!	!	!	!	!	!	!	!LO:DY:t=fo	!	!	!	!
8.B-/L	.	8.b-\L	.	4BB-/	.	8.B-\L	f	4B-/	.	8.b-\L	.
16B-/Jk	.	16b-\Jk	.	.	.	16B-\Jk	.	.	.	16b-\Jk	.
!	!	!LO:LB:g=original	!	!	!	!LO:LB:g=original	!	!LO:LB:g=original	!	!	!
=13	=13	=13	=13	=13	=13	=13	=13	=13	=13	=13	=13
*	*	*	*	*2\right	*	*	*	*	*	*	*
!	!	!	!	!LO:TX:t=P:problem=2\right&colon; global	!	!	!	!	!	!	!
4e-\	.	4ee-\	.	2E-\	.	4e-\	.	2e-/	.	4ee-\	.
8.B-/L	.	8.b-\L	.	.	.	8.B-\L	.	.	.	8.b-\L	.
16B-/Jk	.	16b-\Jk	.	.	.	16B-\Jk	.	.	.	16b-\Jk	.
4G/	.	4g\	.	2r	.	4G\	.	2r	.	4g/	.
8.E-/L	.	8.e-\L	.	.	.	4E-\	.	.	.	4e-/	.
16E-/Jk	.	16e-\Jk	.	.	.	.	.	.	.	.	.
=14	=14	=14	=14	=14	=14	=14	=14	=14	=14	=14	=14
1E-/	.	1e-/	.	4r	.	4r	.	8G/L	.	1dd-X\	.
.	.	.	.	.	.	.	.	8B-/	.	.	.
.	.	.	.	4E-\	.	4E-\	.	8e-/	.	.	.
.	.	.	.	.	.	.	.	8B-/J	.	.	.
.	.	.	.	4E-\	.	4E-\	.	8G/L	.	.	.
.	.	.	.	.	.	.	.	8B-/	.	.	.
.	.	.	.	4E-\	.	4E-\	.	8e-/	.	.	.
.	.	.	.	.	.	.	.	8B-/J	.	.	.
=15	=15	=15	=15	=15	=15	=15	=15	=15	=15	=15	=15
4E-/	.	4e-\	.	2AA-/	.	4A-\	.	2A-/	.	8cc\L	.
.	.	.	.	.	.	.	.	.	.	8ff\	.
4r	.	4r	.	.	.	4r	.	.	.	8eeX\	.
.	.	.	.	.	.	.	.	.	.	8ff\J	.
2r	.	2r	.	2r	.	2r	.	2r	.	8aa-\L	.
.	.	.	.	.	.	.	.	.	.	8ff\	.
.	.	.	.	.	.	.	.	.	.	8ee\	.
.	.	.	.	.	.	.	.	.	.	8ff\J	.
!	!	!	!	!	!	!	!	!	!	!LO:LB:g=original	!
=16	=16	=16	=16	=16	=16	=16	=16	=16	=16	=16	=16
1f/	.	(1f/	.	4r	.	4r	.	8A/L	.	1ee-X\	.
.	.	.	.	.	.	.	.	8c/	.	.	.
.	.	.	.	4F\	.	4F\	.	8f/	.	.	.
.	.	.	.	.	.	.	.	8c/J	.	.	.
.	.	.	.	4F\	.	4F\	.	8A/L	.	.	.
.	.	.	.	.	.	.	.	8c/	.	.	.
.	.	.	.	4F\	.	4F\	.	8f/	.	.	.
.	.	.	.	.	.	.	.	8c/J	.	.	.
!	!	!	!	!LO:LB:g=original	!	!	!	!	!	!	!
=17	=17	=17	=17	=17	=17	=17	=17	=17	=17	=17	=17
4B-/	.	4g\)	.	2BB-/	.	4B-\	.	4B-/	.	4dd\	.
4r	.	4r	.	.	.	4r	.	4b-\	.	4b-\	.
2r	.	2r	.	2r	.	2r	.	4b-\	.	4b-\	.
.	.	.	.	.	.	.	.	4b-\	.	4b-\	.
!	!	!	!	!	!	!LO:LB:g=original	!	!LO:LB:g=original	!	!	!
=18	=18	=18	=18	=18	=18	=18	=18	=18	=18	=18	=18
2r	.	2r	.	2r	.	4D\	.	1b-\	.	4ff\	.
.	.	.	.	.	.	4F\	.	.	.	4aa-\	.
4r	.	4r	.	4r	.	4D\	.	.	.	4ff\	.
8.B-/L	.	8.b-\L	.	4BB-/	.	4F\	.	.	.	4aa-\	.
16B-/Jk	.	16b-\Jk	.	.	.	.	.	.	.	.	.
!LO:LB:g=original	!	!	!	!	!	!	!	!	!	!	!
=19	=19	=19	=19	=19	=19	=19	=19	=19	=19	=19	=19
4e-\	.	4ee-\	.	4E-\	.	4E-\	.	1b-\	.	4gg\	.
4B-/	.	4b-\	.	4BB-/	.	4G\	.	.	.	4bb-\	.
4G/	.	4g\	.	4GG/	.	2r	.	.	.	2r	.
4E-/	.	4e-\	.	4EE-/	.	.	.	.	.	.	.
=20	=20	=20	=20	=20	=20	=20	=20	=20	=20	=20	=20
2BB-/	.	2B-/	.	2BBB-/	.	4D\	.	1b-\	.	4ff\	.
.	.	.	.	.	.	4F\	.	.	.	4aa-\	.
4r	.	4r	.	4r	.	4D\	.	.	.	4ff\	.
8.B-/L	.	8.b-\L	.	4BB-/	.	4F\	.	.	.	4aa-\	.
16B-/Jk	.	16b-\Jk	.	.	.	.	.	.	.	.	.
=21	=21	=21	=21	=21	=21	=21	=21	=21	=21	=21	=21
4e-\	.	4ee-\	.	4E-\	.	4E-\	.	1b-\	.	4gg\	.
4B-/	.	4b-\	.	4BB-/	.	4G\	.	.	.	4bb-\	.
4G/	.	4g\	.	4GG/	.	2r	.	.	.	2r	.
4E-/	.	4e-\	.	4EE-/	.	.	.	.	.	.	.
!	!	!LO:LB:g=original	!	!	!	!	!	!	!	!LO:LB:g=original	!
=22	=22	=22	=22	=22	=22	=22	=22	=22	=22	=22	=22
2BB-/	.	2B-/	.	2BBB-/	.	4D\	.	1b-\	.	4ff\	.
.	.	.	.	.	.	4F\	.	.	.	4aa-\	.
4r	.	4r	.	4r	.	4D\	.	.	.	4ff\	.
4B-/	.	4f\	.	4BB-/	.	4F\	.	.	.	4aa-\	.
!	!	!	!	!LO:LB:g=original	!	!LO:LB:g=original	!	!	!	!	!
=23	=23	=23	=23	=23	=23	=23	=23	=23	=23	=23	=23
*2\right	*	*	*	*	*	*	*	*	*	*	*
!LO:TX:t=P:problem=2\right&colon; global	!	!	!	!	!	!	!	!	!	!LO:SIC:v:s=4gg\	!
2e-\	.	2g\	.	4E-\	.	4E-\	.	8G/L	.	4ff\	.
.	.	.	.	.	.	.	.	8B-/	.	.	.
!	!	!	!	!	!	!LO:SIC:v:s=4G\	!	!	!	!	!
.	.	.	.	4G\	.	4A-\	.	8e-/	.	4bbX\	.
.	.	.	.	.	.	.	.	8B-/J	.	.	.
!	!	!	!	!	!	!LO:SIC:v:s=4A-\	!	!	!	!	!
2r	.	2r	.	4A-\	.	4B-\	.	8A-/L	.	4ccc\	.
.	.	.	.	.	.	.	.	8c/	.	.	.
.	.	.	.	4c\	.	4c\	.	8f/	.	4ee-\	.
.	.	.	.	.	.	.	.	8c/J	.	.	.
=24	=24	=24	=24	=24	=24	=24	=24	=24	=24	=24	=24
!LO:TX:t=P:problem=brak kreski taktowej	!	!	!	!	!	!	!	!	!	!	!
!LO:N:vis=2	!	!	!	!	!	!	!	!	!	!	!
1e-/	.	1g/	.	4B-\	.	4B-\	.	8G/L	.	1b-\	.
.	.	.	.	.	.	.	.	8B-/	.	.	.
.	.	.	.	4B-\	.	4B-\	.	8e-/	.	.	.
.	.	.	.	.	.	.	.	8B-/J	.	.	.
.	.	.	.	4B-\	.	4B-\	.	8G/L	.	.	.
.	.	.	.	.	.	.	.	8B-/	.	.	.
.	.	.	.	4B-\	.	4B-\	.	8e-/	.	.	.
.	.	.	.	.	.	.	.	8B-/J	.	.	.
!	!	!	!	!	!	!	!	!LO:LB:g=original	!	!	!
=-25	=-25	=25	=25	=25	=25	=25	=25	=25	=25	=25	=25
!LO:N:vis=2	!	!	!	!	!	!	!	!	!	!	!
1B-/	.	1f/	.	4BB-/	.	4BB-/	.	8F/L	.	1ff\	.
.	.	.	.	.	.	.	.	8A-/	.	.	.
.	.	.	.	4BB-/	.	4BB-/	.	8d/	.	.	.
.	.	.	.	.	.	.	.	8A-/J	.	.	.
.	.	.	.	4BB-/	.	4BB-/	.	8F/L	.	.	.
.	.	.	.	.	.	.	.	8A-/	.	.	.
.	.	.	.	4BB-/	.	4BB-/	.	8d/	.	.	.
.	.	.	.	.	.	.	.	8A-/J	.	.	.
=26	=26	=26	=26	=26	=26	=26	=26	=26	=26	=26	=26
4G/	.	4e-\	.	[1EE-/	p	8E-\L	.	2G/	.	2ee-\	.
.	.	.	.	.	.	8e-\	.	.	.	.	.
8e-\L	.	8g\L	.	.	.	8E-\	.	.	.	.	.
8f\J	.	8a-\J	.	.	.	8e-\J	.	.	.	.	.
*	*	*	*	*	*	*2\right	*	*	*	*	*
*	*	*	*	*	*	*tremolo	*	*	*	*	*
!	!	!	!	!	!	!LO:TX:t=P:problem=2\right&colon; global	!	!	!	!	!
4g\	.	4b-\	.	.	.	8E-\L	.	4r	.	4r	.
.	.	.	.	.	.	8e-\	.	.	.	.	.
4r	.	4r	.	.	.	8E-\	.	4b-\	.	4gg\	.
.	.	.	.	.	.	8e-\J	.	.	.	.	.
!LO:LB:g=original	!	!	!	!	!	!	!	!	!	!	!
=27	=27	=27	=27	=27	=27	=27	=27	=27	=27	=27	=27
*	*	*	*	*	*	*	*	*2\right	*	*	*
!LO:TX:a:t=1	!	!LO:TX:a:t=1	!	!	!	!	!	!LO:TX:t=P:problem=2\right&colon; global	!LO:DY:rj	!	!
1r	.	1r	.	1EE-/_	.	8E-\L	.	2cc\	p	2aa-\	.
.	.	.	.	.	.	8e-\	.	.	.	.	.
.	.	.	.	.	.	8E-\	.	.	.	.	.
.	.	.	.	.	.	8e-\J	.	.	.	.	.
.	.	.	.	.	.	8E-\L	.	4a-\	.	4ff\	.
.	.	.	.	.	.	8e-\	.	.	.	.	.
.	.	.	.	.	.	8E-\	.	4f\	.	4dd\	.
.	.	.	.	.	.	8e-\J	.	.	.	.	.
*	*	*	*	*	*	*Xtremolo	*	*	*	*	*
!	!	!	!	!	!	!LO:LB:g=original	!	!	!	!	!
=28	=28	=28	=28	=28	=28	=28	=28	=28	=28	=28	=28
4r	.	4r	.	1EE-/_	.	8E-\L	.	2g/	.	2ee-\	.
.	.	.	.	.	.	8e-\	.	.	.	.	.
8e-\L	.	(8g\L	.	.	.	8E-\	.	.	.	.	.
8f\J	.	8a-\J)	.	.	.	8e-\J	.	.	.	.	.
*	*	*	*	*	*	*tremolo	*	*	*	*	*
4g\	.	4b-\	.	.	.	8E-\L	.	4r	.	4r	.
.	.	.	.	.	.	8e-\	.	.	.	.	.
4r	.	4r	.	.	.	8E-\	.	4b-\	.	4gg\	.
.	.	.	.	.	.	8e-\J	.	.	.	.	.
!	!	!	!	!	!	!	!	!	!	!LO:LB:g=original	!
=29	=29	=29	=29	=29	=29	=29	=29	=29	=29	=29	=29
2r	.	2r	.	1EE-/]	.	8E-\L	.	2cc\	.	2aa-\	.
.	.	.	.	.	.	8e-\	.	.	.	.	.
.	.	.	.	.	.	8E-\	.	.	.	.	.
.	.	.	.	.	.	8e-\J	.	.	.	.	.
4r	.	4r	.	.	.	8E-\L	.	4a-\	.	4ff\	.
.	.	.	.	.	.	8e-\	.	.	.	.	.
4B-/	.	4f\	.	.	.	8E-\	.	4f\	.	4dd\	.
.	.	.	.	.	.	8e-\J	.	.	.	.	.
*	*	*	*	*	*	*Xtremolo	*	*	*	*	*
!	!	!	!	!LO:LB:g=original	!	!	!	!	!	!	!
=30	=30	=30	=30	=30	=30	=30	=30	=30	=30	=30	=30
2E-/	.	2e-\	.	4EE-/	.	4E-\	.	2g/	.	2ee-\	.
.	.	.	.	4E-\	.	4EE-/	.	.	.	.	.
!	!	!	!	!	!	!	!	!	!	!LO:TX:t=P:global:problem=znaki repetycji	!
4r	.	4r	.	4r	.	4r	.	4r	.	4r	.
!	!	!	!	!	!	!	!	!LO:LB:g=original	!	!	!
=:|!|:	=:|!|:	=:|!|:	=:|!|:	=:|!|:	=:|!|:	=:|!|:	=:|!|:	=:|!|:	=:|!|:	=:|!|:	=:|!|:
*>B	*	*>B	*	*>B	*	*>B	*	*>B	*	*>B	*
!	!	!	!	!	!LO:DY:t=f.	!	!	!	!	!	!
4r	.	8.b-\L	.	8.E-\L	f	8.e-\L	f	8.g/L	f	8.ee-\L	f
.	.	16b-\Jk	.	16E-\Jk	.	16e-\Jk	.	16g/Jk	.	16ee-\Jk	.
!	!	!LO:LB:g=original	!	!	!	!	!	!	!	!	!
=31	=31	=31	=31	=31	=31	=31	=31	=31	=31	=31	=31
4e-\	.	1b-\	.	4E-\	.	4e-\	.	1g/	.	1ee-\	p
4r	.	.	.	8.G\L	<	8.B-\L	.	.	.	.	.
.	.	.	.	16G\Jk	.	16B-\Jk	.	.	.	.	.
2r	.	.	.	4G\	.	4B-\	.	.	.	.	.
.	.	.	.	8.E-\L	.	8.G\L	.	.	.	.	.
.	.	.	.	16E-\Jk	.	16G\Jk	.	.	.	.	.
!	!	!	!	!	!	!LO:LB:g=original	!	!	!	!	!
=32	=32	=32	=32	=32	=32	=32	=32	=32	=32	=32	=32
!LO:TX:a:t=1	!	!	!	!	!	!	!	!	!	!	!
1r	.	2b-\	p	4BB-/	p	4E-\	p	2g/	.	2ee-\	<
.	.	.	.	4GG/	.	4BB-/	.	.	.	.	.
.	.	4r	.	4EE-/	.	4GG/	.	4r	.	4r	.
!	!	!	!LO:DY:t=fo	!	!	!	!	!	!	!	!
.	.	8.b-\L	f	8.B-\L	f	8.d-X\L	f	8.g/L	.	8.eeX\L	f
.	.	16b-\Jk	.	16B-\Jk	.	16d-\Jk	.	16g/Jk	.	16ee\Jk	.
=33	=33	=33	=33	=33	=33	=33	=33	=33	=33	=33	=33
4g\	.	1b-\	p	4B-\	<	4d-X\	.	1g/	.	1eeX\	p
4r	.	.	.	8.G\L	.	8.B-\L	.	.	.	.	.
.	.	.	.	16G\Jk	.	16B-\Jk	.	.	.	.	.
!	!	!	!	!LO:LB:g=original	!	!	!	!	!	!	!
2r	.	.	.	4En\	.	4G\	.	.	.	.	.
.	.	.	.	8.D-X\L	.	8.En\L	.	.	.	.	.
.	.	.	.	16D-\Jk	.	16E\Jk	.	.	.	.	.
!LO:LB:g=original	!	!	!	!	!	!	!	!	!	!	!
=34	=34	=34	=34	=34	=34	=34	=34	=34	=34	=34	=34
!LO:TX:a:t=1	!	!	!	!	!	!	!	!LO:N:vis=1	!	!LO:SIC:v:s=2een\	!
1r	.	2b-\	.	4BB-/	p	4D-X/	p	2g/	.	2ee-\	<
.	.	.	.	4GG/	.	4BB-/	.	.	.	.	.
!	!	!	!	!	!	!	!	!	!	!LO:LB:g=original	!
.	.	4r	.	4CC/	.	4GG/	.	4r	.	4r	.
.	.	8.cc\L	f	8.F\L	f	8.f\L	f	8.a-/L	.	8.ff\L	f
.	.	16cc\Jk	.	16F\Jk	.	16f\Jk	.	16a-/Jk	.	16ff\Jk	.
=35	=35	=35	=35	=35	=35	=35	=35	=35	=35	=35	=35
!	!	!	!	!	!	!	!	!	!	!	!LO:DY:rj
4f\	.	1cc\	<	4F\	.	4f\	.	1a-/	<	1ff\	p
4r	.	.	.	8.A-\L	.	8.c\L	.	.	.	.	.
.	.	.	.	16A-\Jk	<	16c\Jk	.	.	.	.	.
2r	.	.	.	4A-\	.	4c\	.	.	.	.	.
.	.	.	.	8.F\L	.	8.A-\L	.	.	.	.	.
.	.	.	.	16F\Jk	.	16A-\Jk	.	.	.	.	.
!	!	!	!	!	!	!LO:LB:g=original	!	!	!	!	!
=36	=36	=36	=36	=36	=36	=36	=36	=36	=36	=36	=36
!LO:TX:a:t=2	!	!	!	!	!	!	!	!	!	!	!
0r	.	2cc\	p	4C/	p	4F\	p	2a-\	p	2ff\	.
.	.	.	.	4AA-/	.	4C/	.	.	.	.	.
.	.	4r	.	4FF/	.	4AA-/	.	4r	.	4r	.
!	!	!	!	!	!	!	!	!LO:SIC:v:s=8.an	!	!	!
.	.	8.cc\L	f	8.c\L	f	8.e-\L	f	8.a-/L	f	8.ff#X\L	f
!	!	!	!	!	!	!	!	!LO:SIC:v:s=16an	!	!	!
.	.	16cc\Jk	.	16c\Jk	.	16e-\Jk	.	16a-/Jk	.	16ff#\Jk	.
!	!	!	!	!	!	!	!	!LO:LB:g=original	!	!	!
=37	=37	=37	=37	=37	=37	=37	=37	=37	=37	=37	=37
.	.	1cc\	<	4c\	.	4e-\	.	1a/	<	1ff#X\	<
.	.	.	.	8.An\L	<	8.c\L	.	.	.	.	.
.	.	.	.	16A\Jk	.	16c\Jk	.	.	.	.	.
!	!	!	!	!LO:LB:g=original	!	!	!	!	!	!	!
.	.	.	.	4F#X\	.	4An\	.	.	.	.	.
.	.	.	.	8.E-X\L	.	8.F#X\L	.	.	.	.	.
.	.	.	.	16E-\Jk	.	16F#\Jk	.	.	.	.	.
=38	=38	=38	=38	=38	=38	=38	=38	=38	=38	=38	=38
!	!	!	!	!	!	!	!	!	!	!LO:SIC:v:s=2ff#\	!
2r	.	2cc\	.	4C/	p	4E-\	p	2a\	p	2ff\	.
.	.	.	.	4AAn/	.	4C/	.	.	.	.	.
4r	.	4r	.	4FF/	.	4AAn/	.	4r	.	4r	.
8.G/L	.	8.g\L	.	4r	.	4r	.	8.bX\L	f	8.gg\L	f
16G/Jk	.	16g\Jk	.	.	.	.	.	16b\Jk	.	16gg\Jk	.
!	!	!LO:LB:g=original	!	!	!	!	!	!	!	!LO:LB:g=original	!
=39	=39	=39	=39	=39	=39	=39	=39	=39	=39	=39	=39
4G/	.	4g\	.	4r	.	4r	.	4bX\	.	1gg\	<
4r	.	4r	.	4G\	.	4E-\	.	2g/	.	.	.
2r	.	2r	.	4Bn\	.	4d\	.	.	.	.	.
.	.	.	.	4d\	.	4f\	.	4g/	.	.	.
!	!	!	!	!	!	!LO:LB:g=original	!	!	!	!	!
=40	=40	=40	=40	=40	=40	=40	=40	=40	=40	=40	=40
.	.	.	.	16qqd/	.	16qqf/	.	.	.	.	.
2r	.	2r	.	4c\	.	4e-\	.	1g/	.	1gg\	.
.	.	.	.	8Bn\L	.	8d\L	.	.	.	.	.
.	.	.	.	8c\J	.	8e-\J	.	.	.	.	.
4r	.	4r	.	4d\	.	4f\	.	.	.	.	.
8.G/L	.	8.g\L	.	4c\	.	4e-\	.	.	.	.	.
16G/Jk	.	16g\Jk	.	.	.	.	.	.	.	.	.
=41	=41	=41	=41	=41	=41	=41	=41	=41	=41	=41	=41
4G/	.	4g\	.	4Bn\	.	4d\	.	1g/	.	1gg\	.
4r	.	4r	.	4G\	.	4g\	.	.	.	.	.
!	!	!	!	!LO:LB:g=original	!	!	!	!	!	!	!
2r	.	2r	.	4B\	.	4f\	.	.	.	.	.
.	.	.	.	4d\	.	4f\	.	.	.	.	.
!LO:LB:g=original	!	!	!	!	!	!	!	!	!	!	!
=42	=42	=42	=42	=42	=42	=42	=42	=42	=42	=42	=42
.	.	.	.	8qqd/	p	.	.	.	.	.	.
2r	.	2r	.	4c\	.	4e-\	.	1g/	.	1gg\	.
.	.	.	.	8Bn\L	.	8d\L	.	.	.	.	.
.	.	.	.	8c\J	.	8e-\J	.	.	.	.	.
4r	.	4r	.	4d\	.	4f\	.	.	.	.	.
8.G/L	p	8.g\L	.	4c\	.	4e-\	.	.	.	.	.
16G/Jk	.	16g\Jk	.	.	.	.	.	.	.	.	.
=43	=43	=43	=43	=43	=43	=43	=43	=43	=43	=43	=43
4G/	.	4g\	.	4Bn\	pp	4d\	.	2g/	.	2gg\	.
8.G/L	.	8.g\L	p	4c\	.	4e-\	.	.	.	.	.
16G/Jk	.	16g\Jk	.	.	.	.	.	.	.	.	.
!	!	!	!LO:DY:t=f	!	!	!	!	!LO:LB:g=original	!	!	!
4G/	.	4g\	f	4B\	.	4d\	.	4.g/	.	4.gg\	.
8.G/L	.	8.g\L	p	4c\	.	4e-\	.	.	.	.	.
.	.	.	.	.	.	.	.	8g/	.	8gg\	.
16G/Jk	.	16g\Jk	.	.	.	.	.	.	.	.	.
=44	=44	=44	=44	=44	=44	=44	=44	=44	=44	=44	=44
2G/	.	2g\	.	2Bn\	.	2d\	.	2g/	.	2gg\	.
2r	.	2r	.	2r	.	2r	.	4r	.	4r	.
.	.	.	.	.	.	.	.	8.ee-\L	f	8.gg\L	.
.	.	.	.	.	.	.	.	16ee-\Jk	.	16gg\Jk	.
!	!	!	!	!	!	!LO:LB:g=original	!	!	!	!LO:LB:g=original	!
=45	=45	=45	=45	=45	=45	=45	=45	=45	=45	=45	=45
!	!	!	!	!	!LO:DY:rj:t=f.	!	!	!	!	!	!
4e-\	.	4g\	.	4CC/	f	4C/	f	4ee-\	.	4gg\	.
4r	.	4r	.	4r	.	4r	.	8.cc\L	.	8.ee-\L	.
.	.	.	.	.	.	.	.	16cc\Jk	.	16ee-\Jk	.
4e-\	.	4g\	.	4CC/	.	4C/	.	4cc\	.	4ee-\	.
4r	.	4r	.	4r	.	4r	.	8.g/L	.	8.cc\L	.
.	.	.	.	.	.	.	.	16g/Jk	.	16cc\Jk	.
!	!	!	!	!LO:LB:g=original	!	!	!	!	!	!	!
=46	=46	=46	=46	=46	=46	=46	=46	=46	=46	=46	=46
4e-\	.	4g\	.	2CC/	.	2C/	.	4g/	.	4cc\	.
4r	.	4r	.	.	.	.	.	8.e-/L	.	8.g/L	.
.	.	.	.	.	.	.	.	16e-/Jk	.	16g/Jk	.
2r	.	2r	.	2r	.	4r	.	4e-/	.	4g/	.
.	.	.	.	.	.	4c\	.	8.c/L	.	8e-/L	.
.	.	.	.	.	.	.	.	.	.	8c/J	.
.	.	.	.	.	.	.	.	16c/Jk	.	.	.
!	!	!LO:LB:g=original	!	!	!	!	!	!LO:LB:g=original	!	!	!
=47	=47	=47	=47	=47	=47	=47	=47	=47	=47	=47	=47
!LO:TX:a:t=2	!	!LO:TX:a:t=2	!	!LO:TX:a:t=2	!	!	!	!	!	!	!
0r	.	0r	.	0r	.	4Bn\	.	4f/	p	4a-/	p
.	.	.	.	.	.	4c\	.	4e-/	.	4g/	.
.	.	.	.	.	.	4B\	.	4f/	.	4a-/	.
.	.	.	.	.	.	4c\	.	4e-/	.	4g/	.
=48	=48	=48	=48	=48	=48	=48	=48	=48	=48	=48	=48
.	.	.	.	.	.	4Bn\	.	4f/	.	4a-/	.
.	.	.	.	.	.	4c\	.	4e-/	.	4g/	.
!	!	!	!	!	!	!	!	!	!	!LO:LB:g=original	!
.	.	.	.	.	.	2r	.	4r	.	4r	.
.	.	.	.	.	.	.	.	8.ee-\L	f	8.gg\L	f
.	.	.	.	.	.	.	.	16ee-\Jk	.	16gg\Jk	.
!LO:LB:g=original	!	!	!	!	!	!	!	!	!	!	!
=49	=49	=49	=49	=49	=49	=49	=49	=49	=49	=49	=49
4e-\	.	4g\	.	4CC/	.	4C/	.	4ee-\	.	4gg\	.
4r	.	4r	.	4r	.	4r	.	8.cc\L	.	8.ee-\L	.
.	.	.	.	.	.	.	.	16cc\Jk	.	16ee-\Jk	.
4e-\	.	4g\	.	4CC/	.	4C/	.	4cc\	.	4ee-\	.
4r	.	4r	.	4r	.	4r	.	8.g/L	.	8.cc\L	.
.	.	.	.	.	.	.	.	16g/Jk	.	16cc\Jk	.
!	!	!	!	!	!	!LO:LB:g=original	!	!	!	!	!
=50	=50	=50	=50	=50	=50	=50	=50	=50	=50	=50	=50
4e-\	.	4g\	.	2CC/	.	2C/	.	4g/	.	4cc\	.
4r	.	4r	.	.	.	.	.	8.e-/L	.	8.g/L	.
.	.	.	.	.	.	.	.	16e-/Jk	.	16g/Jk	.
2r	.	2r	.	2r	.	4r	.	4e-/	.	4g/	.
.	.	.	.	.	.	4c\	.	8.c/L	.	8e-/L	.
.	.	.	.	.	.	.	.	.	.	8c/J	.
.	.	.	.	.	.	.	.	16c/Jk	.	.	.
!	!	!	!	!	!	!	!	!LO:LB:g=original	!	!LO:LB:g=original	!
=51	=51	=51	=51	=51	=51	=51	=51	=51	=51	=51	=51
!LO:N:vis=2	!	!	!LO:DY:rj	!LO:TX:a:t=1	!	!	!	!	!LO:DY:rj	!	!LO:DY:rj
1G/	p	1g/	p	1r	.	4Bn\	.	4d/	p	4f'/	p
.	.	.	.	.	.	4c\	.	4c/	.	4e-'/	.
.	.	.	.	.	.	4B\	.	4d/	.	4f'/	.
.	.	.	.	.	.	4c\	.	4c/	.	4e-'/	.
=52	=52	=52	=52	=52	=52	=52	=52	=52	=52	=52	=52
2G/	.	2g\	.	2r	.	4Bn\	.	4d/	.	4f/	.
.	.	.	.	.	.	4c\	.	4c/	.	4e-/	.
2r	.	2r	.	4r	.	4r	.	4r	.	8g\L	.
.	.	.	.	.	.	.	.	.	.	8cc\	.
!	!	!	!	!LO:SIC:v:s=4C	!LO:DY:t=fro	!	!	!	!	!	!
.	.	.	.	4BB-/	f	4C/	.	4e-/	.	8ee-\	.
.	.	.	.	.	.	.	.	.	.	8cc\J	.
=53	=53	=53	=53	=53	=53	=53	=53	=53	=53	=53	=53
!LO:TX:a:t=4	!	!LO:TX:a:t=4	!	!	!	!	!	!	!	!	!
.	.	.	.	.	.	.	.	.	.	8qqcc/	.
00r	.	00r	.	4D\	.	4D\	.	2f/	.	2bX\	.
.	.	.	.	4d\	.	4d\	.	.	.	.	.
.	.	.	.	.	.	.	.	.	.	16qqgg/	.
.	.	.	.	4r	.	4r	.	4r	.	4ff\	.
.	.	.	.	4D\	.	4D\	.	4f/	.	8ee-\L	.
.	.	.	.	.	.	.	.	.	.	8dd\J	.
!	!	!	!	!LO:LB:g=original	!	!	!	!	!	!	!
=54	=54	=54	=54	=54	=54	=54	=54	=54	=54	=54	=54
.	.	.	.	.	.	.	.	.	.	8qqdd/	.
.	.	.	.	4E-\	.	4E-\	.	2g/	.	2cc\	.
.	.	.	.	4e-\	.	4e-\	.	.	.	.	.
.	.	.	.	4r	.	4r	.	4r	.	4.ccc\	.
.	.	.	.	4En\	.	4En\	.	4cc\	.	.	.
.	.	.	.	.	.	.	.	.	.	8bbX\	.
!	!	!	!	!	!	!LO:LB:g=original	!	!	!	!LO:LB:g=original	!
=55	=55	=55	=55	=55	=55	=55	=55	=55	=55	=55	=55
!	!	!	!	!	!	!	!	!	!	!LO:SIC:v:s=8qbb-/	!
.	.	.	.	.	.	.	.	.	.	8qqbbX/	.
.	.	.	.	4F\	.	4F\	.	4cc\	.	4aa-\	.
.	.	.	.	4A-\	.	4A-\	.	8cc\L	.	8gg\L	.
.	.	.	.	.	.	.	.	8dd\J	.	8ff\J	.
.	.	.	.	4G\	.	4G\	.	4cc\	.	4ee-\	.
.	.	.	.	4GG/	.	4GG/	.	4bX\	.	4dd\	.
!	!	!	!	!	!	!	!	!LO:DY:rj	!	!	!
=56	=56	=56	=56	=56	=56	=56	=56	=56	=56	=56	=56
.	.	.	.	.	.	.	.	.	.	16qqdd/	.
.	.	.	.	4AA-/	.	4AA-/	.	2cc\	.	2cc\	.
.	.	.	.	4A-\	.	4A-\	.	.	.	.	.
.	.	.	.	4r	.	4r	.	4r	.	4.ccc\	.
.	.	.	.	4En\	.	4En\	.	4cc\	.	.	.
.	.	.	.	.	.	.	.	.	.	8bbX\	.
=57	=57	=57	=57	=57	=57	=57	=57	=57	=57	=57	=57
.	.	.	.	.	.	.	.	.	.	16qqbb-/	.
2r	.	2r	.	4F\	.	4F\	.	4cc\	.	4aa-\	.
.	.	.	.	4A-\	.	4A-\	.	8cc\L	.	8gg\L	.
.	.	.	.	.	.	.	.	8dd\J	.	8ff\J	.
4G/	.	4g\	.	4G\	.	4G\	.	4cc\	.	4ee-\	.
4G/	.	4g\	.	4GG/	.	4GG/	.	4bX\	.	4dd\	.
!	!	!	!	!LO:LB:g=original	!	!	!	!	!	!	!
=58	=58	=58	=58	=58	=58	=58	=58	=58	=58	=58	=58
4G/	.	4g\	.	8C\L	.	4C/	.	2.cc\	.	2cc\	.
.	.	.	.	8c\	.	.	.	.	.	.	.
4r	.	8g\L	.	8C\	.	8e-\L	.	.	.	.	.
.	.	8f\J	.	8c\J	.	8d\J	.	.	.	.	.
*	*	*	*	*tremolo	*	*	*	*	*	*	*
2r	.	4e-\	.	8C\L	.	4c\	.	.	.	4r	.
.	.	.	.	8c\	.	.	.	.	.	.	.
.	.	4r	.	8C\	.	4r	.	4g#X/	.	4ee-\	.
.	.	.	.	8c\J	.	.	.	.	.	.	.
!LO:LB:g=original	!	!	!	!	!	!	!	!	!	!LO:LB:g=original	!
=59	=59	=59	=59	=59	=59	=59	=59	=59	=59	=59	=59
!	!	!LO:TX:a:t=1	!	!	!	!LO:TX:a:t=1	!	!	!	!	!
2r	.	1r	.	8C\L	.	1r	.	2a-/	.	2ff\	.
.	.	.	.	8c\	.	.	.	.	.	.	.
.	.	.	.	8C\	.	.	.	.	.	.	.
.	.	.	.	8c\J	.	.	.	.	.	.	.
4r	.	.	.	8C\L	.	.	.	4f/	.	4dd\	.
.	.	.	.	8c\	.	.	.	.	.	.	.
4G/	.	.	.	8C\	.	.	.	4d/	.	4bX\	.
.	.	.	.	8c\J	.	.	.	.	.	.	.
!	!	!	!	!	!	!LO:LB:g=original	!	!	!	!	!
=60	=60	=60	=60	=60	=60	=60	=60	=60	=60	=60	=60
4G/	.	4r	.	8C\L	.	4r	.	2e-/	.	2cc\	.
.	.	.	.	8c\	.	.	.	.	.	.	.
4r	.	8g\L	.	8C\	.	8e-\L	.	.	.	.	.
.	.	8f\J	.	8c\J	.	8d\J	.	.	.	.	.
2r	.	4e-\	.	8C\L	.	4c\	.	4r	.	4r	.
.	.	.	.	8c\	.	.	.	.	.	.	.
!	!	!	!	!	!	!	!	!LO:SIC:v:s=4g#	!	!	!
.	.	4r	.	8C\	.	4r	.	4g/	.	4ee-\	.
.	.	.	.	8c\J	.	.	.	.	.	.	.
!	!	!LO:LB:g=original	!	!	!	!	!	!LO:DY:rj	!	!	!
=61	=61	=61	=61	=61	=61	=61	=61	=61	=61	=61	=61
2r	.	2r	.	8C\L	.	1CC/	.	2a-/	.	2ff\	.
.	.	.	.	8c\	.	.	.	.	.	.	.
.	.	.	.	8C\	.	.	.	.	.	.	.
.	.	.	.	8c\J	.	.	.	.	.	.	.
4r	.	4r	.	8C\L	.	.	.	4f/	.	4dd\	.
.	.	.	.	8c\	.	.	.	.	.	.	.
4G/	.	4g\	.	8C\	.	.	.	4d/	.	4bX\	.
.	.	.	.	8c\J	.	.	.	.	.	.	.
*	*	*	*	*Xtremolo	*	*	*	*	*	*	*
!	!	!	!	!LO:LB:g=original	!	!	!	!	!	!	!
=62	=62	=62	=62	=62	=62	=62	=62	=62	=62	=62	=62
!	!	!	!	!	!	!	!	!	!	!LO:SIC:v:s=16qdd/	!
.	.	.	.	.	.	.	.	.	.	16qqcc/	.
!	!	!	!	!	!	!	!	!	!	!LO:SIC:v:s=2cc\	!
2G/	.	2g\	.	4C/	.	4CC/	.	2c/	.	2b-\	.
.	.	.	.	4c\	.	4C/	.	.	.	.	.
4r	.	2r	.	4r	.	4r	.	2r	.	2r	.
4ryy	.	.	.	4ryy	.	4r	.	.	.	.	.
=:|!	=:|!	=:|!	=:|!	=:|!	=:|!	=:|!	=:|!	=:|!	=:|!	=:|!	=:|!
*-	*-	*-	*-	*-	*-	*-	*-	*-	*-	*-	*-
!!!system-decoration: [(s1,s2,s3,s4)][(s5,s6)]
!!!RDF**dynam: f = for
!!!RDF**dynam: < = cres
!!!EED: Andrzej Borzym
!!!EST: 2021-06-24
!!!AIN: 2 clars 2 cor 2 fagot
!!!ENC: Katarzyna Serwa
!!!END: 2021-06-18
